X: 42
T:Ruban Morfydd
T:Morvydd's Ribband
M:3/4
L:1/8
Q:180
C:Trad
S:51 Welsh Airs
R:Waltz
A:Wales
H:From a facsimile c.1840: A Choice Collection of Fifty-One Welsh Airs
H:adapted for The Harp, Piano-Forte, Harpsichord,
H:Violin, or Flute by Edward Jones
H:"Harper to His Late Majesty King George IV, when
H:Prince of Wales".
Z:brian_martin12345@yahoo.com
K:F
"Ad-libitum"
f2e2d2|c2B2A2|B2dcBA|G4z2|FfEeDd|CcB,BA,A|G,>G F2E2|F4z2:||
G2GAGA|GA=BcdB|{cd}c4 {Bc}d2|cdefge|
.Cf.CeB,d|.A,c.G,B.F,A|.G,G.F,F.E,E|F6:||

